source/img/icon-trust-bullhorn.svg

<svg width="60" height="61" viewBox="0 0 60 61" fill="none" xmlns="http://www.w3.org/2000/svg">
<path d="M35 53H33V43.2C33 42.6477 32.5523 42.2 32 42.2C31.4477 42.2 31 42.6477 31 43.2V53H5V33H13.32C13.8723 33 14.32 32.5523 14.32 32C14.32 31.4477 13.8723 31 13.32 31H4C3.44772 31 3 31.4477 3 32V53H1C0.447715 53 0 53.4477 0 54V56C0 58.7614 2.23858 61 5 61H31C33.7614 61 36 58.7614 36 56V54C36 53.4477 35.5523 53 35 53ZM34 56C34 57.6569 32.6569 59 31 59H29V58C29 57.4477 28.5523 57 28 57C27.4477 57 27 57.4477 27 58V59H9V58C9 57.4477 8.55229 57 8 57C7.44772 57 7 57.4477 7 58V59H5C3.34315 59 2 57.6569 2 56V55H34V56Z" fill="#868686"/>
<path d="M52 7H54C54.5523 7 55 6.55228 55 6C55 5.44772 54.5523 5 54 5H52C50.3431 5 49 6.34315 49 8V9H48C47.4477 9 47 9.44772 47 10C47 10.5523 47.4477 11 48 11H49V14C49 14.5523 49.4477 15 50 15C50.5523 15 51 14.5523 51 14V11H52C52.5523 11 53 10.5523 53 10C53 9.44772 52.5523 9 52 9H51V8C51 7.44772 51.4477 7 52 7Z" fill="#868686"/>
<path d="M57 1H45C43.3431 1 42 2.34315 42 4V6C42 6.55228 42.4477 7 43 7C43.5523 7 44 6.55228 44 6V4C44 3.44772 44.4477 3 45 3H57C57.5523 3 58 3.44772 58 4V16C58 16.5523 57.5523 17 57 17H45C44.4477 17 44 16.5523 44 16V10C44 9.44771 43.5523 9 43 9C42.4477 9 42 9.44771 42 10V16C42 17.6569 43.3431 19 45 19H57C58.6569 19 60 17.6569 60 16V4C60 2.34315 58.6569 1 57 1Z" fill="#868686"/>
<path d="M47 41C47 43.2091 48.7909 45 51 45C53.2091 45 55 43.2091 55 41C55 38.7909 53.2091 37 51 37C48.7909 37 47 38.7909 47 41ZM53 41C53 42.1046 52.1046 43 51 43C49.8954 43 49 42.1046 49 41C49 39.8954 49.8954 39 51 39C52.1046 39 53 39.8954 53 41Z" fill="#868686"/>
<path d="M57 32H45C43.3431 32 42 33.3431 42 35V47C42 48.6569 43.3431 50 45 50H57C58.6569 50 60 48.6569 60 47V45C60 44.4477 59.5523 44 59 44C58.4477 44 58 44.4477 58 45V47C58 47.5523 57.5523 48 57 48H45C44.4477 48 44 47.5523 44 47V35C44 34.4477 44.4477 34 45 34H57C57.5523 34 58 34.4477 58 35V41C58 41.5523 58.4477 42 59 42C59.5523 42 60 41.5523 60 41V35C60 33.3431 58.6569 32 57 32Z" fill="#868686"/>
<path d="M22.47 12.8499C22.6291 12.9485 22.8128 13.0005 23 12.9999C23.1565 12.999 23.3107 12.9613 23.45 12.8899L29.45 9.8899C29.784 9.71881 29.994 9.37515 29.994 8.9999C29.994 8.62466 29.784 8.281 29.45 8.1099L23.45 5.1099C23.1405 4.95394 22.7723 4.96936 22.4769 5.15067C22.1815 5.33198 22.0011 5.65331 22 5.9999V11.9999C21.9993 12.3454 22.177 12.6668 22.47 12.8499ZM24 7.6199L26.76 8.9999L24 10.3799V7.6199Z" fill="#868686"/>
<path d="M25 18C29.9706 18 34 13.9706 34 9C34 4.02944 29.9706 0 25 0C20.0294 0 16 4.02944 16 9C16 13.9706 20.0294 18 25 18ZM25 2C28.866 2 32 5.13401 32 9C32 12.866 28.866 16 25 16C21.134 16 18 12.866 18 9C18 5.13401 21.134 2 25 2Z" fill="#868686"/>
<path d="M35.0001 22.0001C35.3148 22.0001 35.6112 21.8519 35.8001 21.6001L38.8001 17.6001C39.1314 17.1582 39.0419 16.5314 38.6001 16.2001C38.1582 15.8687 37.5314 15.9582 37.2001 16.4001L34.2001 20.4001C33.8687 20.8419 33.9582 21.4687 34.4001 21.8001C34.5732 21.9299 34.7837 22.0001 35.0001 22.0001Z" fill="#868686"/>
<path d="M37.2001 25.6001C37.3889 25.8519 37.6853 26.0001 38.0001 26.0001C38.2164 26.0001 38.427 25.9299 38.6001 25.8001L42.6001 22.8001C43.0419 22.4687 43.1314 21.8419 42.8001 21.4001C42.4687 20.9582 41.8419 20.8687 41.4001 21.2001L37.4001 24.2001C36.9582 24.5314 36.8687 25.1582 37.2001 25.6001Z" fill="#868686"/>
<path d="M47.0001 27.8001C46.9521 27.5322 46.7969 27.2955 46.5705 27.1445C46.344 26.9936 46.0658 26.9414 45.8001 27.0001L40.8001 28.0001C40.2478 28.0553 39.8449 28.5478 39.9001 29.1001C39.9553 29.6524 40.4478 30.0553 41.0001 30.0001H41.2001L46.2001 29.0001C46.468 28.9521 46.7047 28.7969 46.8557 28.5705C47.0066 28.3441 47.0588 28.0659 47.0001 27.8001Z" fill="#868686"/>
<path d="M1 28H13C13.5523 28 14 27.5523 14 27V11C14 10.4477 13.5523 10 13 10H1C0.447715 10 0 10.4477 0 11V27C0 27.5523 0.447715 28 1 28ZM2 12H12V26H2V12Z" fill="#868686"/>
<path d="M9 14H7C6.44772 14 6 14.4477 6 15C6 15.5523 6.44772 16 7 16H9C9.55228 16 10 15.5523 10 15C10 14.4477 9.55228 14 9 14Z" fill="#868686"/>
<path d="M9 18H5C4.44772 18 4 18.4477 4 19C4 19.5523 4.44772 20 5 20H9C9.55228 20 10 19.5523 10 19C10 18.4477 9.55228 18 9 18Z" fill="#868686"/>
<path d="M9 22H5C4.44772 22 4 22.4477 4 23C4 23.5523 4.44772 24 5 24H9C9.55228 24 10 23.5523 10 23C10 22.4477 9.55228 22 9 22Z" fill="#868686"/>
<path d="M34.1201 27.7002C33.9414 27.3894 33.6105 27.1975 33.2521 27.1968C32.8936 27.1961 32.5619 27.3867 32.3821 27.6968C32.2022 28.0069 32.2014 28.3894 32.3801 28.7002L36.7901 36.3302L20.7901 42.3302C20.7901 42.3302 20.7901 42.3302 20.7201 42.3302H20.6401L18.0401 43.8302L16.3101 44.8302C15.8501 45.0962 15.3032 45.1681 14.7901 45.0302C14.2797 44.8924 13.8446 44.558 13.5801 44.1002L11.5801 40.6402C11.0916 39.7005 11.4205 38.5428 12.3301 38.0002L15.7901 36.0002L18.2901 40.3302C18.4694 40.6409 18.8014 40.8317 19.1601 40.8302C19.518 40.8317 19.8495 40.6416 20.0291 40.332C20.2087 40.0223 20.2091 39.6403 20.0301 39.3302L17.4501 34.8702L30.0001 24.5202L30.4101 25.2302C30.6862 25.7107 31.2996 25.8764 31.7801 25.6002C32.2606 25.3241 32.4262 24.7107 32.1501 24.2302L31.1501 22.5002C31.0017 22.2467 30.7494 22.0711 30.4601 22.0202C30.1691 21.9654 29.8688 22.0423 29.6401 22.2302L15.6401 33.7702L11.3801 36.2302C9.80783 37.146 9.05172 39.0075 9.54007 40.7602L8.54007 41.3302C7.48633 41.9354 6.90168 43.1164 7.05941 44.3212C7.21713 45.526 8.08607 46.5168 9.26007 46.8302C9.51455 46.8977 9.7768 46.9313 10.0401 46.9302C10.5661 46.9281 11.0828 46.7903 11.5401 46.5302L12.5401 45.9602C13.0204 46.4565 13.6246 46.8155 14.2901 47.0002C14.6318 47.0958 14.9852 47.143 15.3401 47.1402C16.043 47.1419 16.7335 46.9554 17.3401 46.6002L18.2101 46.1002L20.2101 49.5702C21.0376 51.001 22.8665 51.4929 24.3001 50.6702C24.99 50.2727 25.4935 49.6173 25.6999 48.8482C25.9062 48.0792 25.7983 47.2597 25.4001 46.5702L23.5801 43.4002L38.5801 37.7702C38.8554 37.6667 39.0712 37.4473 39.1701 37.1702C39.2685 36.8966 39.243 36.5936 39.1001 36.3402L34.1201 27.7002ZM10.5001 44.7902C10.2701 44.9232 9.99663 44.9592 9.74007 44.8902C9.48387 44.8237 9.2645 44.6583 9.13007 44.4302C8.99711 44.2002 8.96113 43.9268 9.03007 43.6702C9.09902 43.4123 9.26825 43.1927 9.50007 43.0602L10.3701 42.5602L11.3701 44.2902L10.5001 44.7902ZM23.6601 47.5902C23.793 47.8202 23.829 48.0937 23.7601 48.3502C23.6887 48.6044 23.5198 48.8201 23.2901 48.9502C22.8147 49.2233 22.2081 49.0627 21.9301 48.5902L19.9301 45.1202L21.5901 44.1702H21.6701L23.6601 47.5902Z" fill="#868686"/>
</svg>

<svg viewBox="0 0 60 61" fill="none" xmlns="http://www.w3.org/2000/svg"><path d="M35 53h-2v-9.8a1 1 0 1 0-2 0V53H5V33h8.32a1 1 0 1 0 0-2H4a1 1 0 0 0-1 1v21H1a1 1 0 0 0-1 1v2a5 5 0 0 0 5 5h26a5 5 0 0 0 5-5v-2a1 1 0 0 0-1-1Zm-1 3a3 3 0 0 1-3 3h-2v-1a1 1 0 1 0-2 0v1H9v-1a1 1 0 1 0-2 0v1H5a3 3 0 0 1-3-3v-1h32v1ZM52 7h2a1 1 0 1 0 0-2h-2a3 3 0 0 0-3 3v1h-1a1 1 0 1 0 0 2h1v3a1 1 0 1 0 2 0v-3h1a1 1 0 1 0 0-2h-1V8a1 1 0 0 1 1-1Z" fill="#868686"/><path d="M57 1H45a3 3 0 0 0-3 3v2a1 1 0 1 0 2 0V4a1 1 0 0 1 1-1h12a1 1 0 0 1 1 1v12a1 1 0 0 1-1 1H45a1 1 0 0 1-1-1v-6a1 1 0 1 0-2 0v6a3 3 0 0 0 3 3h12a3 3 0 0 0 3-3V4a3 3 0 0 0-3-3ZM47 41a4 4 0 1 0 8 0 4 4 0 0 0-8 0Zm6 0a2 2 0 1 1-4 0 2 2 0 0 1 4 0Z" fill="#868686"/><path d="M57 32H45a3 3 0 0 0-3 3v12a3 3 0 0 0 3 3h12a3 3 0 0 0 3-3v-2a1 1 0 1 0-2 0v2a1 1 0 0 1-1 1H45a1 1 0 0 1-1-1V35a1 1 0 0 1 1-1h12a1 1 0 0 1 1 1v6a1 1 0 1 0 2 0v-6a3 3 0 0 0-3-3ZM22.47 12.85a1 1 0 0 0 .98.04l6-3a1 1 0 0 0 0-1.78l-6-3A1 1 0 0 0 22 6v6a1 1 0 0 0 .47.85ZM24 7.62 26.76 9 24 10.38V7.62Z" fill="#868686"/><path d="M25 18a9 9 0 1 0 0-18 9 9 0 0 0 0 18Zm0-16a7 7 0 1 1 0 14 7 7 0 0 1 0-14ZM35 22a1 1 0 0 0 .8-.4l3-4a1 1 0 0 0-1.6-1.2l-3 4A1 1 0 0 0 35 22ZM37.2 25.6a1 1 0 0 0 1.4.2l4-3a1 1 0 0 0-1.2-1.6l-4 3a1 1 0 0 0-.2 1.4ZM47 27.8a1 1 0 0 0-1.2-.8l-5 1a1.005 1.005 0 1 0 .2 2h.2l5-1a1 1 0 0 0 .8-1.2ZM1 28h12a1 1 0 0 0 1-1V11a1 1 0 0 0-1-1H1a1 1 0 0 0-1 1v16a1 1 0 0 0 1 1Zm1-16h10v14H2V12Z" fill="#868686"/><path d="M9 14H7a1 1 0 1 0 0 2h2a1 1 0 1 0 0-2ZM9 18H5a1 1 0 1 0 0 2h4a1 1 0 1 0 0-2ZM9 22H5a1 1 0 1 0 0 2h4a1 1 0 1 0 0-2ZM34.12 27.7a1.004 1.004 0 0 0-1.74 1l4.41 7.63-16 6H20.64l-2.6 1.5-1.73 1a2 2 0 0 1-2.73-.73l-2-3.46a2 2 0 0 1 .75-2.64l3.46-2 2.5 4.33a1 1 0 0 0 .87.5 1 1 0 0 0 .87-1.5l-2.58-4.46L30 24.52l.41.71a1.003 1.003 0 1 0 1.74-1l-1-1.73a1 1 0 0 0-.69-.48 1 1 0 0 0-.82.21l-14 11.54-4.26 2.46a4 4 0 0 0-1.84 4.53l-1 .57a3 3 0 0 0 1.5 5.6 3.059 3.059 0 0 0 1.5-.4l1-.57a3.879 3.879 0 0 0 2.8 1.18 3.94 3.94 0 0 0 2-.54l.87-.5 2 3.47a3 3 0 0 0 4.09 1.1 3 3 0 0 0 1.1-4.1l-1.82-3.17 15-5.63a1 1 0 0 0 .52-1.43l-4.98-8.64ZM10.5 44.79a1 1 0 0 1-.76.1 1 1 0 0 1-.61-.46 1 1 0 0 1 .37-1.37l.87-.5 1 1.73-.87.5Zm13.16 2.8a1 1 0 0 1 .1.76 1 1 0 0 1-.47.6 1 1 0 0 1-1.36-.36l-2-3.47 1.66-.95h.08l1.99 3.42Z" fill="#868686"/></svg>
